; generated by PrusaSlicer 2.7.4+win64 on 2024-10-17 at 16:25:40 UTC


;
;
; 

; external perimeters extrusion width = 0.45mm
; perimeters extrusion width = 0.45mm
; infill extrusion width = 0.45mm
; solid infill extrusion width = 0.45mm
; top infill extrusion width = 0.40mm
; support material extrusion width = 0.35mm
; first layer extrusion width = 0.42mm

; external perimeters extrusion width = 0.45mm
; perimeters extrusion width = 0.45mm
; infill extrusion width = 0.45mm
; solid infill extrusion width = 0.45mm
; top infill extrusion width = 0.40mm
; support material extrusion width = 0.35mm
; first layer extrusion width = 0.42mm

M73 P0 R76
M73 Q0 S77
M201 X1000 Y1000 Z200 E5000 ; sets maximum accelerations, mm/sec^2
M203 X200 Y200 Z12 E120 ; sets maximum feedrates, mm / sec
M204 S1250 T1250 ; sets acceleration (S) and retract acceleration (R), mm/sec^2
M205 X8.00 Y8.00 Z0.40 E4.50 ; sets the jerk limits, mm/sec
M205 S0 T0 ; sets the minimum extruding and travel feed rate, mm/sec

; printing object II 2x4 id:0 copy 0
; stop printing object II 2x4 id:0 copy 0
; printing object II 2x6 id:1 copy 0
; stop printing object II 2x6 id:1 copy 0

;TYPE:Custom
M862.3 P "MK3S" ; printer model check
M862.1 P0.4 ; nozzle diameter check
M115 U3.13.2 ; tell printer latest fw version
G90 ; use absolute coordinates
M83 ; extruder relative mode
M104 S215 ; set extruder temp
M140 S60 ; set bed temp
M190 S60 ; wait for bed temp
M109 S215 ; wait for extruder temp
G28 W ; home all without mesh bed level
G80 X94.5913 Y69.2652 W62.3979 H62.1977 ; mesh bed levelling

G1 Z0.2 F720
G1 Y-3 F1000 ; go outside print area
G92 E0
G1 X60 E9 F1000 ; intro line
G1 X100 E12.5 F1000 ; intro line

G92 E0
M221 S95

; Don't change E values below. Excessive value can damage the printer.
M907 E430 ; set extruder motor current
G21 ; set units to millimeters
G90 ; use absolute coordinates
M83 ; use relative distances for extrusion
M900 K0.05 ; Filament gcode LA 1.5
M900 K30 ; Filament gcode LA 1.0

M107
;LAYER_CHANGE
;Z:0.2
;HEIGHT:0.2
G1 E-.8 F2100
G1 Z.6 F720
G1 X104.747 Y70.26 F10800
G1 Z.2 F720
G1 E.8 F2100
M204 S800
;TYPE:Skirt/Brim
;WIDTH:0.42
G1 F1200
G1 X104.858 Y70.15 E.0049
G1 X106.539 Y69.454 E.05705
G1 X145.042 Y69.454 E1.20723
G1 X146.723 Y70.15 E.05705
G1 X147.437 Y71.285 E.04204
G1 X156.708 Y103.534 E1.0521
G1 X156.801 Y104.19 E.02077
G1 X156.801 Y128.652 E.76699
G1 X156.308 Y130.101 E.04799
G1 X156.119 Y130.347 E.00973
G1 X155.012 Y131.144 E.04277
G1 X154.235 Y131.274 E.0247
G1 X97.267 Y131.274 E1.78619
G1 X95.587 Y130.578 E.05702
G1 X95.476 Y130.468 E.0049
G1 X94.78 Y128.787 E.05705
G1 X94.78 Y104.19 E.77122
G1 X94.872 Y103.534 E.02077
G1 X104.144 Y71.285 E1.05211
G1 X104.717 Y70.312 E.0354
M73 Q0 S76
M204 S1000
;WIPE_START
G1 F8640
G1 X104.747 Y70.26 E-.01386
G1 X104.858 Y70.15 E-.03608
G1 X106.539 Y69.454 E-.4201
G1 X107.968 Y69.454 E-.32996
;WIPE_END
G1 Z.6 F720
G1 X105.793 Y105.535 F10800
G1 Z.2 F720
G1 E.8 F2100
M204 S800
G1 F1200
G1 X106.263 Y105.52 E.01474
G1 X107.547 Y105.729 E.04079
G1 X108.746 Y106.16 E.03995
G1 X109.815 Y106.774 E.03865
G1 X110.315 Y106.43 E.01903
G1 X111.529 Y105.881 E.04178
G1 X112.846 Y105.569 E.04244
G1 X114.221 Y105.518 E.04314
G1 X115.544 Y105.729 E.04201
G1 X116.749 Y106.162 E.04015
G1 X117.825 Y106.784 E.03897
G1 X118.43 Y106.366 E.02306
G1 X119.628 Y105.848 E.04092
G1 X120.978 Y105.552 E.04333
G1 X122.31 Y105.524 E.04177
G1 X123.613 Y105.747 E.04145
G1 X124.736 Y106.156 E.03747
G1 X125.828 Y106.779 E.03942
G1 X126.422 Y106.37 E.02261
G1 X127.58 Y105.864 E.03962
G1 X128.925 Y105.559 E.04324
G1 X130.266 Y105.521 E.04206
G1 X131.613 Y105.747 E.04282
G1 X132.736 Y106.156 E.03747
G1 X133.828 Y106.779 E.03942
G1 X134.422 Y106.37 E.02261
G1 X135.58 Y105.864 E.03962
G1 X136.925 Y105.559 E.04324
G1 X138.266 Y105.521 E.04206
G1 X139.613 Y105.747 E.04282
G1 X140.736 Y106.156 E.03747
G1 X141.83 Y106.78 E.03949
G1 X142.415 Y106.373 E.02234
G1 X143.53 Y105.88 E.03822
G1 X144.797 Y105.576 E.04085
G1 X146.257 Y105.52 E.04581
G1 X147.552 Y105.731 E.04114
G1 X148.748 Y106.161 E.03985
G1 X149.716 Y106.713 E.03494
G1 X150.465 Y107.3 E.02984
G1 X151.057 Y107.901 E.02645
G1 X151.562 Y108.557 E.02596
G1 X152.037 Y109.364 E.02936
G1 X152.458 Y110.41 E.03535
G1 X152.727 Y111.682 E.04076
G1 X152.757 Y112.985 E.04087
G1 X152.54 Y114.283 E.04126
G1 X152.031 Y115.624 E.04497
G1 X151.509 Y116.464 E.03101
G1 X152.026 Y117.343 E.03197
G1 X152.475 Y118.466 E.03792
G1 X152.731 Y119.709 E.03979
G1 X152.752 Y121.044 E.04186
G1 X152.519 Y122.358 E.04184
G1 X152.055 Y123.576 E.04087
G1 X151.31 Y124.767 E.04405
G1 X150.29 Y125.831 E.04621
G1 X149.283 Y126.537 E.03856
G1 X148.151 Y127.062 E.03912
G1 X146.622 Y127.423 E.04926
G1 X145.338 Y127.458 E.04027
G1 X144.096 Y127.264 E.03941
G1 X142.852 Y126.825 E.04136
G1 X141.765 Y126.203 E.03927
G1 X141.265 Y126.547 E.01903
G1 X140.055 Y127.095 E.04165
G1 X138.784 Y127.401 E.04099
G1 X137.491 Y127.467 E.04059
G1 X136.125 Y127.271 E.04327
G1 X134.871 Y126.833 E.04165
G1 X133.76 Y126.196 E.04015
G1 X133.23 Y126.567 E.02028
G1 X132.006 Y127.112 E.04201
G1 X130.693 Y127.414 E.04224
G1 X129.358 Y127.459 E.04188
G1 X128.039 Y127.249 E.04188
G1 X126.841 Y126.82 E.0399
G1 X125.757 Y126.198 E.03919
G1 X125.197 Y126.586 E.02136
G1 X124.008 Y127.111 E.04075
G1 X122.698 Y127.413 E.04215
G1 X121.357 Y127.459 E.04207
G1 X120.041 Y127.25 E.04178
G1 X118.877 Y126.836 E.03874
G1 X117.754 Y126.197 E.04051
G1 X117.158 Y126.608 E.0227
G1 X115.966 Y127.125 E.04074
G1 X114.698 Y127.413 E.04077
G1 X113.362 Y127.46 E.04192
G1 X112.009 Y127.242 E.04297
G1 X110.878 Y126.837 E.03767
G1 X109.757 Y126.201 E.04041
G1 X109.241 Y126.561 E.01973
G1 X108.023 Y127.106 E.04184
G1 X106.751 Y127.406 E.04098
G1 X105.409 Y127.462 E.04211
G1 X104 Y127.239 E.04473
G1 X102.832 Y126.815 E.03896
G1 X101.814 Y126.23 E.03681
G1 X101.112 Y125.675 E.02806
G1 X100.022 Y124.425 E.052
G1 X99.57 Y123.666 E.0277
G1 X99.12 Y122.559 E.03747
G1 X98.847 Y121.243 E.04214
G1 X98.831 Y119.897 E.04221
G1 X99.074 Y118.574 E.04218
G1 X99.531 Y117.389 E.03982
G1 X100.073 Y116.511 E.03235
G1 X99.57 Y115.665 E.03086
G1 X99.097 Y114.482 E.03995
G1 X98.843 Y113.199 E.04101
G1 X98.832 Y111.893 E.04095
G1 X99.065 Y110.605 E.04104
G1 X99.584 Y109.286 E.04444
G1 X100.293 Y108.181 E.04117
G1 X101.221 Y107.206 E.0422
G1 X102.326 Y106.424 E.04244
G1 X103.588 Y105.861 E.04333
G1 X104.897 Y105.562 E.0421
G1 X105.733 Y105.537 E.02622
M204 S1000
G1 X105.733 Y105.537 F10800
G1 X105.745 Y105.91
M204 S800
G1 F1200
G1 X106.221 Y105.895 E.01493
G1 X107.436 Y106.09 E.03858
G1 X108.602 Y106.509 E.03885
G1 X109.799 Y107.246 E.04407
G1 X110.488 Y106.766 E.02633
G1 X111.634 Y106.243 E.0395
G1 X112.914 Y105.94 E.04124
G1 X114.216 Y105.895 E.04085
G1 X115.433 Y106.089 E.03864
G1 X116.605 Y106.511 E.03906
G1 X117.812 Y107.254 E.04444
G1 X118.598 Y106.703 E.0301
G1 X119.727 Y106.212 E.0386
G1 X121.04 Y105.925 E.04214
G1 X122.299 Y105.901 E.03948
G1 X123.5 Y106.107 E.03821
G1 X124.592 Y106.505 E.03644
G1 X125.807 Y107.255 E.04477
G1 X126.591 Y106.707 E.02999
G1 X127.681 Y106.227 E.03734
G1 X128.99 Y105.931 E.04208
G1 X130.258 Y105.898 E.03977
G1 X131.5 Y106.107 E.03949
G1 X132.592 Y106.505 E.03644
G1 X133.807 Y107.255 E.04477
G1 X134.591 Y106.707 E.02999
G1 X135.681 Y106.227 E.03734
G1 X136.99 Y105.931 E.04208
G1 X138.258 Y105.898 E.03977
G1 X139.5 Y106.107 E.03949
G1 X140.592 Y106.505 E.03644
G1 X141.809 Y107.256 E.04484
G1 X142.586 Y106.71 E.02978
G1 X143.636 Y106.243 E.03603
G1 X144.831 Y105.952 E.03856
G1 X146.216 Y105.895 E.04346
G1 X147.474 Y106.1 E.03996
G1 X148.604 Y106.51 E.03769
G1 X149.517 Y107.033 E.03299
G1 X150.205 Y107.574 E.02744
G1 X151.256 Y108.778 E.05011
G1 X151.704 Y109.543 E.0278
G1 X152.093 Y110.506 E.03256
G1 X152.351 Y111.709 E.03858
G1 X152.379 Y112.976 E.03974
G1 X152.171 Y114.201 E.03896
G1 X151.686 Y115.471 E.04262
G1 X151.042 Y116.499 E.03803
G1 X151.681 Y117.497 E.03716
G1 X152.118 Y118.59 E.03691
G1 X152.358 Y119.766 E.03763
G1 X152.375 Y121.031 E.03967
G1 X152.16 Y122.242 E.03856
G1 X151.724 Y123.393 E.03859
G1 X151.024 Y124.521 E.04162
G1 X150.058 Y125.533 E.04387
G1 X149.081 Y126.218 E.03741
G1 X148.011 Y126.712 E.03695
G1 X146.555 Y127.051 E.04687
G1 X145.379 Y127.083 E.03689
G1 X144.205 Y126.902 E.03724
G1 X142.994 Y126.475 E.04026
G1 X141.782 Y125.731 E.04459
G1 X141.092 Y126.211 E.02635
G1 X139.949 Y126.733 E.0394
G1 X138.746 Y127.025 E.03881
G1 X137.525 Y127.091 E.03834
G1 X136.231 Y126.909 E.04097
G1 X135.012 Y126.483 E.04049
G1 X133.771 Y125.725 E.04559
G1 X133.058 Y126.231 E.02741
G1 X131.903 Y126.749 E.03969
G1 X130.627 Y127.042 E.04105
G1 X129.364 Y127.082 E.03962
G1 X128.15 Y126.888 E.03855
G1 X126.985 Y126.471 E.0388
G1 X125.773 Y125.724 E.04464
G1 X125.026 Y126.249 E.02863
G1 X123.905 Y126.748 E.03847
G1 X122.631 Y127.041 E.04099
G1 X121.363 Y127.082 E.03978
G1 X120.151 Y126.889 E.03848
G1 X119.019 Y126.487 E.03766
G1 X117.772 Y125.723 E.04585
G1 X116.989 Y126.27 E.02995
G1 X115.865 Y126.761 E.03846
G1 X114.632 Y127.041 E.03964
G1 X113.368 Y127.082 E.03965
G1 X112.12 Y126.881 E.03963
G1 X111.021 Y126.487 E.03661
G1 X109.776 Y125.725 E.04577
G1 X109.068 Y126.225 E.02718
G1 X107.917 Y126.744 E.03959
G1 X106.716 Y127.03 E.03871
G1 X105.448 Y127.087 E.0398
G1 X104.112 Y126.878 E.0424
G1 X102.976 Y126.467 E.03788
G1 X102.037 Y125.926 E.03398
G1 X101.372 Y125.401 E.02657
G1 X100.817 Y124.839 E.02477
G1 X99.914 Y123.511 E.05035
G1 X99.476 Y122.433 E.03648
G1 X99.22 Y121.185 E.03994
G1 X99.206 Y119.946 E.03885
G1 X99.432 Y118.693 E.03992
G1 X99.877 Y117.542 E.03869
G1 X100.537 Y116.479 E.03923
G1 X99.914 Y115.511 E.03609
G1 X99.453 Y114.358 E.03893
G1 X99.216 Y113.144 E.03878
G1 X99.209 Y111.909 E.03872
G1 X99.433 Y110.691 E.03883
G1 X99.911 Y109.473 E.04103
G1 X100.579 Y108.427 E.03891
G1 X101.481 Y107.48 E.04101
G1 X102.528 Y106.743 E.04015
G1 X103.724 Y106.213 E.04102
G1 X104.962 Y105.934 E.03979
G1 X105.685 Y105.912 E.02268
M204 S1000
G1 X105.685 Y105.912 F10800
G1 X105.697 Y106.287
M204 S800
G1 F1200
G1 X106.181 Y106.271 E.01518
G1 X107.325 Y106.451 E.03631
G1 X108.458 Y106.858 E.03775
G1 X109.785 Y107.717 E.04956
G1 X110.662 Y107.101 E.0336
G1 X111.739 Y106.606 E.03716
G1 X112.983 Y106.312 E.04008
G1 X114.209 Y106.273 E.03846
G1 X115.354 Y106.459 E.03637
G1 X116.46 Y106.859 E.03688
G1 X117.799 Y107.727 E.05003
G1 X118.767 Y107.041 E.0372
G1 X119.86 Y106.565 E.03738
G1 X121.066 Y106.301 E.03871
G1 X122.254 Y106.276 E.03726
G1 X123.388 Y106.467 E.03606
G1 X124.419 Y106.84 E.03438
G1 X125.335 Y107.366 E.03312
G1 X125.795 Y107.725 E.0183
G1 X126.761 Y107.044 E.03706
G1 X127.816 Y106.58 E.03614
G1 X129.02 Y106.307 E.03871
G1 X130.214 Y106.273 E.03745
G1 X131.388 Y106.467 E.03731
G1 X132.419 Y106.84 E.03438
G1 X133.335 Y107.366 E.03312
G1 X133.795 Y107.725 E.0183
G1 X134.761 Y107.045 E.03704
G1 X135.816 Y106.58 E.03615
G1 X137.02 Y106.307 E.03871
G1 X138.214 Y106.273 E.03745
G1 X139.388 Y106.467 E.03731
G1 X140.419 Y106.84 E.03438
G1 X141.335 Y107.366 E.03312
G1 X141.797 Y107.727 E.01838
G1 X142.757 Y107.047 E.03689
G1 X143.774 Y106.594 E.03491
G1 X144.901 Y106.323 E.03634
G1 X146.211 Y106.273 E.0411
G1 X147.362 Y106.461 E.03657
G1 X148.431 Y106.846 E.03563
G1 X149.317 Y107.353 E.03201
G1 X149.946 Y107.847 E.02508
G1 X150.938 Y108.98 E.04722
G1 X151.36 Y109.698 E.02611
G1 X151.728 Y110.602 E.0306
G1 X151.974 Y111.736 E.03638
G1 X152.004 Y112.932 E.03751
G1 X151.812 Y114.084 E.03662
G1 X151.34 Y115.319 E.04145
G1 X150.552 Y116.486 E.04415
G1 X151.349 Y117.676 E.04491
G1 X151.762 Y118.713 E.035
G1 X151.984 Y119.823 E.03549
G1 X151.998 Y121.018 E.03747
G1 X151.801 Y122.126 E.03529
G1 X151.394 Y123.21 E.0363
G1 X150.714 Y124.305 E.04041
G1 X149.799 Y125.258 E.04142
G1 X148.879 Y125.899 E.03516
G1 X147.871 Y126.361 E.03477
G1 X146.525 Y126.675 E.04334
G1 X145.418 Y126.707 E.03472
G1 X144.313 Y126.54 E.03504
G1 X143.167 Y126.139 E.03807
G1 X142.221 Y125.595 E.03422
G1 X141.795 Y125.26 E.01699
G1 X140.919 Y125.876 E.03358
G1 X139.842 Y126.371 E.03716
G1 X138.675 Y126.655 E.03766
G1 X137.524 Y126.713 E.03613
G1 X136.304 Y126.538 E.03864
G1 X135.154 Y126.133 E.03823
G1 X134.191 Y125.574 E.03491
G1 X133.783 Y125.251 E.01632
G1 X132.886 Y125.895 E.03462
G1 X131.765 Y126.397 E.03851
G1 X130.595 Y126.666 E.03764
G1 X129.404 Y126.707 E.03737
G1 X128.259 Y126.527 E.03634
G1 X127.158 Y126.135 E.03664
G1 X126.219 Y125.594 E.03398
G1 X125.785 Y125.252 E.01733
G1 X124.856 Y125.912 E.03573
G1 X123.768 Y126.396 E.03734
G1 X122.6 Y126.665 E.03758
G1 X121.404 Y126.707 E.03752
G1 X120.259 Y126.527 E.03634
G1 X119.192 Y126.151 E.03547
G1 X118.221 Y125.594 E.0351
G1 X117.785 Y125.252 E.01737
G1 X116.82 Y125.932 E.03701
G1 X115.73 Y126.409 E.03731
G1 X114.601 Y126.665 E.0363
G1 X113.409 Y126.707 E.0374
G1 X112.229 Y126.519 E.03746
G1 X111.193 Y126.151 E.03447
G1 X110.245 Y125.611 E.03421
G1 X109.786 Y125.253 E.01825
G1 X108.896 Y125.889 E.0343
G1 X107.779 Y126.392 E.03841
G1 X106.647 Y126.659 E.03647
G1 X105.487 Y126.711 E.03641
G1 X104.222 Y126.517 E.04013
G1 X103.149 Y126.131 E.03575
G1 X102.237 Y125.606 E.03299
G1 X101.632 Y125.128 E.02418
G1 X100.645 Y124 E.047
G1 X100.258 Y123.355 E.02358
G1 X99.832 Y122.307 E.03547
G1 X99.597 Y121.161 E.03668
G1 X99.58 Y119.994 E.03659
G1 X99.79 Y118.812 E.03764
G1 X100.222 Y117.695 E.03755
G1 X101.028 Y116.493 E.04538
G1 X100.246 Y115.33 E.04394
G1 X99.82 Y114.267 E.03591
G1 X99.593 Y113.123 E.03657
G1 X99.583 Y111.958 E.03653
G1 X99.791 Y110.811 E.03655
G1 X100.24 Y109.659 E.03877
G1 X100.866 Y108.673 E.03662
G1 X101.715 Y107.777 E.0387
G1 X102.698 Y107.08 E.03778
G1 X103.859 Y106.565 E.03982
G1 X104.993 Y106.31 E.03644
G1 X105.637 Y106.289 E.0202
M204 S1000
G1 X105.637 Y106.289 F10800
G1 X105.65 Y106.666
M204 S800
G1 F1200
G1 X106.175 Y106.648 E.01647
G1 X107.248 Y106.821 E.03408
G1 X108.283 Y107.193 E.03448
G1 X109.161 Y107.703 E.03184
G1 X109.808 Y108.217 E.02591
G1 X110.836 Y107.436 E.04048
G1 X111.846 Y106.968 E.0349
G1 X113.015 Y106.688 E.03769
G1 X114.167 Y106.648 E.03614
G1 X115.276 Y106.828 E.03523
G1 X116.314 Y107.207 E.03465
G1 X117.186 Y107.721 E.03174
G1 X117.786 Y108.2 E.02407
G1 X118.936 Y107.379 E.0443
G1 X119.994 Y106.918 E.03619
G1 X121.094 Y106.678 E.0353
G1 X122.21 Y106.651 E.035
G1 X123.277 Y106.828 E.03391
G1 X124.246 Y107.175 E.03227
G1 X125.135 Y107.686 E.03215
G1 X125.783 Y108.197 E.02587
G1 X126.931 Y107.382 E.04414
G1 X127.952 Y106.932 E.03498
G1 X129.05 Y106.683 E.0353
G1 X130.172 Y106.648 E.0352
G1 X131.278 Y106.828 E.03513
G1 X132.246 Y107.175 E.03224
G1 X133.135 Y107.686 E.03215
G1 X133.783 Y108.197 E.02587
G1 X134.931 Y107.382 E.04414
G1 X135.952 Y106.932 E.03498
G1 X137.05 Y106.683 E.0353
G1 X138.172 Y106.648 E.0352
G1 X139.278 Y106.828 E.03513
G1 X140.246 Y107.175 E.03224
G1 X141.135 Y107.686 E.03215
G1 X141.786 Y108.199 E.02599
G1 X142.928 Y107.383 E.04401
G1 X143.911 Y106.946 E.03373
G1 X144.935 Y106.699 E.03303
G1 X146.169 Y106.648 E.03872
G1 X147.284 Y106.83 E.03542
G1 X148.286 Y107.194 E.03343
G1 X149.117 Y107.673 E.03007
G1 X149.703 Y108.136 E.02342
G1 X150.632 Y109.2 E.04429
G1 X151.016 Y109.853 E.02375
G1 X151.372 Y110.729 E.02965
G1 X151.602 Y111.798 E.03428
G1 X151.629 Y112.889 E.03422
G1 X151.453 Y113.969 E.03431
G1 X151.011 Y115.134 E.03907
G1 X150.424 Y116.064 E.03448
G1 X150.053 Y116.463 E.01708
G1 X150.618 Y117.18 E.02862
G1 X151.004 Y117.829 E.02368
G1 X151.405 Y118.836 E.03399
G1 X151.611 Y119.879 E.03333
G1 X151.623 Y120.969 E.03418
G1 X151.433 Y122.042 E.03417
G1 X151.048 Y123.06 E.03413
G1 X150.428 Y124.059 E.03686
G1 X149.567 Y124.96 E.03908
G1 X148.707 Y125.563 E.03293
G1 X147.731 Y126.01 E.03366
G1 X146.494 Y126.299 E.03983
G1 X145.456 Y126.332 E.03256
G1 X144.419 Y126.178 E.03287
G1 X143.34 Y125.804 E.03581
G1 X142.422 Y125.275 E.03322
G1 X141.773 Y124.76 E.02598
G1 X140.744 Y125.541 E.0405
G1 X139.734 Y126.009 E.0349
G1 X138.603 Y126.284 E.03649
G1 X137.525 Y126.336 E.03384
G1 X136.377 Y126.168 E.03638
G1 X135.298 Y125.784 E.03591
G1 X134.394 Y125.256 E.03282
G1 X133.794 Y124.776 E.02409
G1 X132.713 Y125.559 E.04185
G1 X131.661 Y126.034 E.03619
