; generated by PrusaSlicer 2.7.4+win64 on 2024-10-17 at 16:26:50 UTC


;
;
; 

; external perimeters extrusion width = 0.45mm
; perimeters extrusion width = 0.45mm
; infill extrusion width = 0.45mm
; solid infill extrusion width = 0.45mm
; top infill extrusion width = 0.40mm
; first layer extrusion width = 0.42mm

M73 P0 R63
M73 Q0 S63
M201 X1000 Y1000 Z200 E5000 ; sets maximum accelerations, mm/sec^2
M203 X200 Y200 Z12 E120 ; sets maximum feedrates, mm / sec
M204 S1250 T1250 ; sets acceleration (S) and retract acceleration (R), mm/sec^2
M205 X8.00 Y8.00 Z0.40 E4.50 ; sets the jerk limits, mm/sec
M205 S0 T0 ; sets the minimum extruding and travel feed rate, mm/sec

; printing object T 2x3 id:0 copy 0
; stop printing object T 2x3 id:0 copy 0

;TYPE:Custom
M862.3 P "MK3S" ; printer model check
M862.1 P0.4 ; nozzle diameter check
M115 U3.13.2 ; tell printer latest fw version
G90 ; use absolute coordinates
M83 ; extruder relative mode
M104 S215 ; set extruder temp
M140 S60 ; set bed temp
M190 S60 ; wait for bed temp
M109 S215 ; wait for extruder temp
G28 W ; home all without mesh bed level
G80 X87.4163 Y71.6352 W75.1675 H67.0293 ; mesh bed levelling

G1 Z0.2 F720
G1 Y-3 F1000 ; go outside print area
G92 E0
G1 X60 E9 F1000 ; intro line
G1 X100 E12.5 F1000 ; intro line

G92 E0
M221 S95

; Don't change E values below. Excessive value can damage the printer.
M907 E430 ; set extruder motor current
G21 ; set units to millimeters
G90 ; use absolute coordinates
M83 ; use relative distances for extrusion
M900 K0.05 ; Filament gcode LA 1.5
M900 K30 ; Filament gcode LA 1.0

M107
;LAYER_CHANGE
;Z:0.2
;HEIGHT:0.2
G1 E-.8 F2100
G1 Z.6 F720
G1 X110.191 Y76 F10800
G1 Z.2 F720
G1 E.8 F2100
M204 S800
;TYPE:Skirt/Brim
;WIDTH:0.42
G1 F1200
G1 X110.569 Y75.508 E.01945
G1 X113.557 Y72.52 E.13249
G1 X115.238 Y71.824 E.05705
G1 X134.762 Y71.824 E.61216
G1 X136.443 Y72.52 E.05705
G1 X139.431 Y75.508 E.13249
G1 X139.809 Y76 E.01945
G1 X161.071 Y112.827 E1.33331
G1 X161.308 Y113.4 E.01944
G1 X162.402 Y117.481 E.13247
G1 X162.164 Y119.285 E.05705
G1 X152.402 Y136.194 E.61218
G1 X150.958 Y137.301 E.05705
G1 X146.877 Y138.395 E.13247
G1 X146.262 Y138.476 E.01945
G1 X103.738 Y138.476 E1.33331
G1 X103.123 Y138.395 E.01945
G1 X99.042 Y137.301 E.13247
G1 X97.598 Y136.194 E.05705
G1 X87.836 Y119.285 E.61218
G1 X87.598 Y117.481 E.05705
G1 X88.692 Y113.4 E.13247
G1 X88.929 Y112.827 E.01944
G1 X110.161 Y76.052 E1.33143
M204 S1000
;WIPE_START
G1 F8640
G1 X110.191 Y76 E-.01386
G1 X110.569 Y75.508 E-.14326
G1 X112.538 Y73.539 E-.64288
;WIPE_END
G1 Z.6 F720
G1 X112.917 Y77.396 F10800
G1 Z.2 F720
G1 E.8 F2100
M204 S800
G1 F1200
G1 X113.775 Y76.06 E.04978
G1 X114.955 Y75.098 E.04774
G1 X116.904 Y74.487 E.06404
G1 X133.04 Y74.491 E.50593
G1 X134.06 Y74.685 E.03255
G1 X135.038 Y75.101 E.03332
G1 X136.163 Y75.997 E.04509
G1 X137.03 Y77.279 E.04853
G1 X137.444 Y78.732 E.04737
G1 X137.463 Y101.905 E.72657
G1 X157.507 Y113.504 E.72611
G1 X158.527 Y114.529 E.04534
M73 P0 R62
G1 X159.214 Y115.845 E.04655
G1 X159.401 Y116.666 E.0264
G1 X159.47 Y117.402 E.02318
G1 X159.024 Y119.396 E.06407
G1 X150.928 Y133.419 E.5077
G1 X149.424 Y134.802 E.06406
G1 X148.752 Y135.11 E.02318
G1 X147.948 Y135.359 E.02639
G1 X146.404 Y135.414 E.04844
G1 X144.893 Y134.977 E.04932
G1 X125 Y123.492 E.72022
G1 X105.098 Y134.979 E.72049
G1 X104.089 Y135.332 E.03352
G1 X102.961 Y135.459 E.03559
G1 X101.465 Y135.179 E.04772
G1 X100.62 Y134.827 E.0287
G1 X99.073 Y133.42 E.06557
G1 X91.028 Y119.487 E.50445
G1 X90.67 Y118.486 E.03333
G1 X90.533 Y117.376 E.03507
G1 X90.814 Y115.823 E.04948
G1 X91.166 Y114.978 E.0287
G1 X92.573 Y113.431 E.06557
G1 X112.537 Y101.905 E.72279
G1 X112.537 Y78.881 E.7219
G1 X112.902 Y77.454 E.04618
M204 S1000
G1 X112.902 Y77.454 F10800
G1 X113.267 Y77.549
M204 S800
G1 F1200
G1 X113.274 Y77.521 E.0009
G1 X114.049 Y76.321 E.04479
G1 X115.148 Y75.423 E.0445
G1 X116.933 Y74.864 E.05865
G1 X133.021 Y74.868 E.50443
G1 X133.967 Y75.051 E.03021
G1 X134.865 Y75.436 E.03063
G1 X135.903 Y76.272 E.04179
G1 X136.699 Y77.463 E.04492
G1 X137.074 Y78.807 E.04375
G1 X137.086 Y102.123 E.73106
G1 X157.259 Y113.789 E.73066
G1 X158.207 Y114.731 E.0419
G1 X158.852 Y115.953 E.04332
G1 X159.03 Y116.737 E.02521
G1 X159.092 Y117.407 E.0211
G1 X158.683 Y119.232 E.05864
G1 X150.616 Y133.206 E.50591
G1 X149.239 Y134.472 E.05865
G1 X147.861 Y134.991 E.04617
G1 X146.422 Y135.037 E.04514
G1 X145.062 Y134.64 E.04442
G1 X125 Y123.057 E.72634
G1 X104.955 Y134.63 E.72573
G1 X104.022 Y134.96 E.03103
G1 X103.002 Y135.083 E.03221
G1 X101.555 Y134.812 E.04616
G1 X100.797 Y134.492 E.0258
G1 X99.385 Y133.207 E.05986
G1 X91.363 Y119.313 E.50303
G1 X91.033 Y118.381 E.031
M73 P1 R62
M73 Q1 S63
G1 X90.911 Y117.36 E.03224
G1 X91.181 Y115.913 E.04615
G1 X91.501 Y115.155 E.0258
G1 X92.787 Y113.743 E.05988
G1 X112.914 Y102.123 E.72869
G1 X112.914 Y78.906 E.72795
G1 X113.252 Y77.607 E.04209
M204 S1000
G1 X113.252 Y77.607 F10800
G1 X113.608 Y77.698
M204 S800
G1 F1200
G1 X114.323 Y76.581 E.04158
G1 X115.34 Y75.749 E.0412
G1 X116.961 Y75.241 E.05326
G1 X133.003 Y75.245 E.50299
G1 X133.874 Y75.417 E.02784
G1 X134.69 Y75.772 E.0279
G1 X135.643 Y76.546 E.03849
G1 X136.368 Y77.644 E.04125
G1 X136.703 Y78.881 E.04018
G1 X136.709 Y102.34 E.73554
G1 X157.012 Y114.075 E.73527
G1 X157.889 Y114.935 E.03851
G1 X158.49 Y116.062 E.04005
G1 X158.713 Y117.411 E.04287
G1 X158.343 Y119.068 E.05323
G1 X150.304 Y132.993 E.50414
G1 X149.054 Y134.142 E.05323
G1 X147.773 Y134.624 E.04291
G1 X146.498 Y134.666 E.04
G1 X145.23 Y134.301 E.04137
G1 X125 Y122.622 E.73241
G1 X104.782 Y134.294 E.73198
G1 X103.918 Y134.597 E.02871
G1 X102.988 Y134.705 E.02936
G1 X101.647 Y134.446 E.04282
G1 X100.975 Y134.159 E.02291
G1 X99.697 Y132.993 E.05424
G1 X91.699 Y119.14 E.50154
G1 X91.396 Y118.276 E.02871
M73 Q1 S62
G1 X91.289 Y117.346 E.02935
G1 X91.547 Y116.005 E.04282
G1 X91.835 Y115.333 E.02292
G1 X93 Y114.055 E.05422
G1 X113.291 Y102.34 E.73463
G1 X113.291 Y78.929 E.73404
G1 X113.593 Y77.756 E.03798
M204 S1000
G1 X113.593 Y77.756 F10800
G1 X113.957 Y77.852
M204 S800
G1 F1200
G1 X113.965 Y77.823 E.00094
G1 X114.596 Y76.841 E.0366
G1 X115.532 Y76.075 E.03792
G1 X116.99 Y75.619 E.0479
G1 X132.983 Y75.622 E.50145
G1 X133.779 Y75.782 E.02546
G1 X134.514 Y76.106 E.02519
G1 X135.38 Y76.818 E.03515
G1 X136.035 Y77.824 E.03764
G1 X136.332 Y78.953 E.0366
G1 X136.332 Y102.558 E.74012
G1 X156.767 Y114.362 E.73994
G1 X157.571 Y115.141 E.0351
G1 X158.128 Y116.171 E.03671
G1 X158.289 Y116.879 E.02277
G1 X158.335 Y117.415 E.01687
G1 X158.002 Y118.905 E.04787
G1 X149.991 Y132.779 E.50232
G1 X148.868 Y133.813 E.04786
G1 X147.687 Y134.256 E.03955
G1 X146.517 Y134.288 E.0367
G1 X145.399 Y133.964 E.0365
G1 X125 Y122.186 E.73855
G1 X104.609 Y133.959 E.73826
G1 X103.815 Y134.234 E.02635
G1 X102.976 Y134.327 E.02647
G1 X101.741 Y134.081 E.03948
G1 X101.154 Y133.825 E.02008
G1 X100.009 Y132.78 E.0486
G1 X92.035 Y118.968 E.50006
G1 X91.759 Y118.174 E.02636
G1 X91.666 Y117.335 E.02647
G1 X91.913 Y116.1 E.03949
G1 X92.168 Y115.512 E.0201
G1 X93.214 Y114.367 E.04863
G1 X113.668 Y102.558 E.74053
G1 X113.668 Y78.954 E.74009
G1 X113.942 Y77.91 E.03384
M204 S1000
G1 X113.942 Y77.91 F10800
G1 X114.299 Y78.003
M204 S800
G1 F1200
G1 X114.299 Y78 E.00009
G1 X114.871 Y77.101 E.03341
G1 X115.723 Y76.401 E.03457
G1 X117.019 Y75.996 E.04257
G1 X132.965 Y75.999 E.49998
G1 X133.646 Y76.136 E.02178
G1 X134.337 Y76.44 E.02367
G1 X135.117 Y77.089 E.03181
G1 X135.679 Y77.951 E.03226
G1 X135.955 Y78.978 E.03334
G1 X135.955 Y102.776 E.74617
G1 X156.524 Y114.651 E.74469
G1 X157.256 Y115.349 E.03171
G1 X157.766 Y116.281 E.03331
G1 X157.957 Y117.417 E.03612
G1 X157.661 Y118.741 E.04254
G1 X149.679 Y132.566 E.50053
G1 X148.681 Y133.485 E.04254
G1 X147.601 Y133.887 E.03613
G1 X146.539 Y133.911 E.03331
G1 X145.569 Y133.626 E.0317
G1 X125 Y121.751 E.74469
G1 X104.437 Y133.623 E.74448
G1 X103.714 Y133.87 E.02396
G1 X102.967 Y133.949 E.02355
G1 X101.838 Y133.716 E.03614
G1 X101.335 Y133.493 E.01725
G1 X100.321 Y132.566 E.04308
G1 X92.371 Y118.795 E.49857
G1 X92.123 Y118.072 E.02397
G1 X92.045 Y117.325 E.02355
G1 X92.278 Y116.197 E.03611
G1 X92.5 Y115.693 E.01727
G1 X93.427 Y114.679 E.04308
G1 X114.045 Y102.776 E.74646
G1 X114.045 Y78.978 E.74617
G1 X114.283 Y78.061 E.0297
M204 S1000
G1 X114.283 Y78.061 F10800
G1 X114.647 Y78.158
M204 S800
G1 F1200
G1 X114.656 Y78.126 E.00104
G1 X115.145 Y77.361 E.02847
G1 X115.913 Y76.728 E.03121
G1 X117.047 Y76.373 E.03726
G1 X132.945 Y76.376 E.49847
G1 X133.549 Y76.501 E.01934
G1 X134.158 Y76.773 E.02091
G1 X134.851 Y77.358 E.02844
G1 X135.345 Y78.129 E.02871
G1 X135.578 Y79.003 E.02836
G1 X135.578 Y102.994 E.75222
G1 X156.316 Y114.967 E.75081
M73 P2 R62
M73 Q2 S62
G1 X156.941 Y115.558 E.02697
G1 X157.405 Y116.391 E.0299
G1 X157.579 Y117.418 E.03266
G1 X157.32 Y118.577 E.03724
G1 X149.367 Y132.352 E.49872
G1 X148.493 Y133.157 E.03726
G1 X147.516 Y133.519 E.03267
G1 X146.563 Y133.534 E.02988
G1 X145.738 Y133.289 E.02698
G1 X125 Y121.315 E.75083
G1 X104.264 Y133.287 E.75074
G1 X103.653 Y133.497 E.02026
G1 X102.958 Y133.571 E.02191
G1 X101.938 Y133.352 E.03271
G1 X101.518 Y133.162 E.01445
G1 X100.633 Y132.353 E.0376
G1 X92.706 Y118.622 E.49712
G1 X92.496 Y118.012 E.02023
M73 P2 R61
G1 X92.423 Y117.316 E.02194
G1 X92.642 Y116.297 E.03268
G1 X92.831 Y115.876 E.01447
G1 X93.641 Y114.992 E.03759
G1 X114.422 Y102.994 E.75237
G1 X114.422 Y79.003 E.75222
G1 X114.632 Y78.216 E.02554
M204 S1000
G1 X114.632 Y78.216 F10800
G1 X114.995 Y78.316
M204 S800
G1 F1200
G1 X115.011 Y78.255 E.00198
G1 X115.418 Y77.622 E.0236
G1 X116.102 Y77.055 E.02786
G1 X117.076 Y76.75 E.032
G1 X132.925 Y76.753 E.49693
G1 X133.449 Y76.865 E.0168
G1 X133.977 Y77.105 E.01819
G1 X134.584 Y77.626 E.02508
G1 X134.989 Y78.257 E.02351
G1 X135.201 Y79.029 E.0251
G1 X135.201 Y103.211 E.75821
G1 X156.109 Y115.283 E.75698
G1 X156.628 Y115.77 E.02232
G1 X157.043 Y116.503 E.02641
G1 X157.201 Y117.418 E.02911
G1 X156.979 Y118.414 E.032
G1 X149.055 Y132.139 E.49691
G1 X148.304 Y132.829 E.03198
G1 X147.432 Y133.15 E.02913
G1 X146.589 Y133.157 E.02643
G1 X145.908 Y132.951 E.02231
G1 X125 Y120.88 E.75697
G1 X104.092 Y132.951 E.75697
G1 X103.554 Y133.133 E.01781
G1 X102.952 Y133.192 E.01897
G1 X102.042 Y132.989 E.02923
G1 X101.702 Y132.833 E.01173
G1 X100.945 Y132.139 E.0322
G1 X93.042 Y118.45 E.4956
G1 X92.86 Y117.912 E.01781
G1 X92.801 Y117.311 E.01893
G1 X93.005 Y116.4 E.02927
G1 X93.161 Y116.061 E.0117
G1 X93.854 Y115.304 E.03218
G1 X114.799 Y103.211 E.75832
G1 X114.799 Y79.029 E.75821
G1 X114.979 Y78.373 E.02133
M204 S1000
G1 X114.979 Y78.373 F10800
G1 X115.34 Y78.476
M204 S800
G1 F1200
G1 X115.366 Y78.385 E.00297
G1 X115.691 Y77.883 E.01875
G1 X116.29 Y77.383 E.02446
G1 X117.105 Y77.127 E.02678
G1 X132.903 Y77.131 E.49534
G1 X133.347 Y77.228 E.01425
G1 X133.793 Y77.435 E.01542
G1 X134.316 Y77.892 E.02178
G1 X134.635 Y78.387 E.01846
G1 X134.824 Y79.056 E.0218
G1 X134.824 Y103.429 E.7642
G1 X155.902 Y115.599 E.76313
G1 X156.316 Y115.984 E.01773
G1 X156.682 Y116.615 E.02287
G1 X156.823 Y117.416 E.0255
G1 X156.638 Y118.25 E.02679
G1 X148.743 Y131.925 E.4951
G1 X148.113 Y132.503 E.02681
G1 X147.348 Y132.782 E.02553
G1 X146.619 Y132.78 E.02286
G1 X146.079 Y132.614 E.01771
G1 X125 Y120.445 E.76315
G1 X103.921 Y132.615 E.76316
G1 X103.457 Y132.768 E.01532
G1 X102.95 Y132.814 E.01596
G1 X102.149 Y132.627 E.02579
G1 X101.89 Y132.504 E.00899
G1 X101.257 Y131.925 E.0269
G1 X93.379 Y118.279 E.49404
G1 X93.225 Y117.816 E.0153
G1 X93.179 Y117.308 E.01599
G1 X93.367 Y116.507 E.0258
G1 X93.489 Y116.248 E.00898
G1 X94.068 Y115.616 E.02687
G1 X115.176 Y103.429 E.76422
G1 X115.176 Y79.056 E.7642
G1 X115.324 Y78.534 E.01701
M204 S1000
G1 X115.324 Y78.534 F10800
G1 X115.684 Y78.64
M204 S800
G1 F1200
G1 X115.719 Y78.52 E.00392
G1 X115.964 Y78.144 E.01407
G1 X116.475 Y77.713 E.02096
G1 X117.134 Y77.504 E.02168
G1 X132.881 Y77.508 E.49374
G1 X133.606 Y77.763 E.0241
G1 X134.046 Y78.155 E.01848
G1 X134.281 Y78.52 E.01361
G1 X134.447 Y79.084 E.01843
G1 X134.447 Y103.647 E.77016
G1 X155.696 Y115.915 E.76931
G1 X156.007 Y116.202 E.01327
M73 Q2 S61
G1 X156.321 Y116.729 E.01923
G1 X156.446 Y117.412 E.02177
G1 X156.297 Y118.087 E.02167
G1 X148.431 Y131.712 E.49328
G1 X147.92 Y132.178 E.02168
G1 X147.266 Y132.412 E.02178
G1 X146.653 Y132.404 E.01922
G1 X146.249 Y132.278 E.01327
G1 X125 Y120.009 E.76933
G1 X103.75 Y132.278 E.76936
G1 X102.951 Y132.436 E.02554
G1 X102.08 Y132.178 E.02848
G1 X101.569 Y131.712 E.02168
G1 X93.716 Y118.108 E.49251
G1 X93.557 Y117.31 E.02551
M73 P3 R61
M73 Q3 S61
G1 X93.815 Y116.438 E.02851
G1 X94.282 Y115.928 E.02168
G1 X115.553 Y103.647 E.77012
G1 X115.553 Y79.084 E.77016
G1 X115.667 Y78.697 E.01265
M204 S1000
G1 X115.667 Y78.697 F10800
G1 X116.025 Y78.808
M204 S800
G1 F1200
G1 X116.071 Y78.658 E.00492
G1 X116.237 Y78.405 E.00949
G1 X116.657 Y78.043 E.01739
G1 X117.163 Y77.881 E.01666
G1 X132.859 Y77.885 E.49214
G1 X133.418 Y78.091 E.01868
G1 X133.773 Y78.416 E.01509
G1 X134.07 Y79.113 E.02376
G1 X134.07 Y103.864 E.77605
G1 X155.491 Y116.232 E.77555
G1 X155.702 Y116.424 E.00894
G1 X155.961 Y116.844 E.01547
G1 X156.068 Y117.404 E.01788
G1 X155.955 Y117.924 E.01668
G1 X148.119 Y131.497 E.4914
G1 X147.725 Y131.855 E.01669
G1 X147.186 Y132.042 E.01789
G1 X146.693 Y132.028 E.01546
G1 X146.421 Y131.941 E.00895
G1 X125 Y119.574 E.77554
G1 X103.579 Y131.941 E.77554
G1 X102.954 Y132.058 E.01994
G1 X102.275 Y131.854 E.02223
G1 X101.881 Y131.497 E.01667
G1 X94.052 Y117.937 E.49094
G1 X93.936 Y117.312 E.01993
G1 X94.086 Y116.737 E.01863
G1 X94.496 Y116.24 E.0202
G1 X115.93 Y103.864 E.77603
G1 X115.93 Y79.113 E.77605
G1 X116.007 Y78.865 E.00814
M204 S1000
G1 X116.007 Y78.865 F10800
G1 X116.362 Y79.015
M204 S800
G1 F1200
G1 X116.51 Y78.667 E.01186
G1 X116.833 Y78.377 E.01361
G1 X117.194 Y78.258 E.01192
G1 X132.837 Y78.262 E.49048
G1 X133.228 Y78.419 E.01321
G1 X133.497 Y78.674 E.01162
G1 X133.693 Y79.145 E.016
G1 X133.693 Y104.082 E.78188
G1 X155.286 Y116.549 E.78178
G1 X155.601 Y116.962 E.01629
G1 X155.691 Y117.39 E.01371
G1 X155.613 Y117.762 E.01192
G1 X147.808 Y131.282 E.48948
G1 X147.524 Y131.536 E.01195
G1 X147.108 Y131.672 E.01372
G1 X146.593 Y131.605 E.01628
G1 X125 Y119.138 E.78178
G1 X103.407 Y131.605 E.78178
G1 X102.958 Y131.679 E.01427
G1 X102.476 Y131.536 E.01576
G1 X102.192 Y131.282 E.01195
G1 X94.388 Y117.765 E.48938
G1 X94.315 Y117.316 E.01426
G1 X94.458 Y116.835 E.01573
G1 X94.711 Y116.551 E.01193
G1 X116.307 Y104.082 E.78189
G1 X116.307 Y79.145 E.78188
G1 X116.339 Y79.07 E.00256
M204 S1000
G1 X116.339 Y79.07 F10800
G1 X116.684 Y79.18
M204 S800
G1 F1200
G1 X116.782 Y78.929 E.00845
G1 X117.016 Y78.712 E.01001
G1 X117.229 Y78.635 E.0071
G1 X132.785 Y78.635 E.48775
G1 X133.216 Y78.926 E.01631
G1 X133.316 Y79.18 E.00856
G1 X133.316 Y104.3 E.78762
G1 X155.082 Y116.867 E.78804
G1 X155.242 Y117.084 E.00845
G1 X155.31 Y117.381 E.00955
G1 X155.269 Y117.604 E.00711
G1 X147.499 Y131.063 E.48727
G1 X147.326 Y131.21 E.00712
G1 X147.034 Y131.3 E.00958
G1 X146.767 Y131.27 E.00842
G1 X125 Y118.703 E.78807
G1 X103.233 Y131.27 E.78807
M73 P3 R60
G1 X102.966 Y131.3 E.00842
G1 X102.674 Y131.21 E.00958
G1 X102.501 Y131.063 E.00712
G1 X94.724 Y117.592 E.48771
G1 X94.694 Y117.324 E.00846
G1 X94.784 Y117.032 E.00958
G1 X94.93 Y116.86 E.00707
G1 X116.684 Y104.3 E.7876
G1 X116.684 Y79.24 E.78574
M204 S1000
G1 X116.684 Y79.24 F10800
G1 X117.09 Y79.24
M204 S800
G1 F1200
G1 X117.09 Y79.153 E.00273
G1 X117.271 Y79.012 E.00719
G1 X132.798 Y79.041 E.48684
G1 X132.939 Y79.222 E.00719
G1 X132.939 Y104.518 E.79314
G1 X154.845 Y117.165 E.7931
G1 X154.922 Y117.452 E.00932
G1 X147.193 Y130.839 E.48467
G1 X146.981 Y130.925 E.00717
M73 P4 R60
G1 X125 Y118.267 E.79531
G1 X103.093 Y130.915 E.79314
M73 Q4 S61
G1 X102.867 Y130.884 E.00715
G1 X95.078 Y117.452 E.48684
G1 X95.109 Y117.225 E.00718
G1 X117.061 Y104.518 E.79529
G1 X117.09 Y79.3 E.79069
M204 S1000
;WIPE_START
G1 F8640
G1 X117.09 Y79.24 E-.01385
G1 X117.09 Y79.153 E-.02009
G1 X117.271 Y79.012 E-.05298
G1 X120.359 Y79.018 E-.71308
;WIPE_END
G1 Z.6 F720
G1 X105.26 Y125.608 F10800
G1 Z.2 F720
